src/pos-icons/credit-card-wireless-off.svg

<svg height="24" viewBox="0 0 24 24" width="24" xmlns="http://www.w3.org/2000/svg"><path d="m12 2c-2.15 0-4.3.69-6.1 2.08l1.42 1.42c3.13-2.26 7.52-2 10.34.83l1.41-1.41c-1.95-1.96-4.51-2.92-7.07-2.92m-8.72 2-1.28 1.27 5.73 5.73h-1.73c-1.11 0-2 .9-2 2v8c0 1.11.89 2 2 2h12c.5 0 .92-.18 1.27-.46l.46.46 1.27-1.28m-9-15.72c-1.13 0-2.25.31-3.23.94l1.47 1.47c1.49-.73 3.34-.49 4.59.75l1.41-1.41c-1.17-1.17-2.7-1.75-4.24-1.75m.82 5 3 3h2.18v2.18l2 2v-5.18c0-1.1-.89-2-2-2m-12 3h4.73l3 3h-7.73z"/></svg>

<?xml version="1.0" encoding="UTF-8"?><!DOCTYPE svg PUBLIC "-//W3C//DTD SVG 1.1//EN" "http://www.w3.org/Graphics/SVG/1.1/DTD/svg11.dtd"><svg xmlns="http://www.w3.org/2000/svg" xmlns:xlink="http://www.w3.org/1999/xlink" version="1.1" id="mdi-credit-card-wireless-off" width="24" height="24" viewBox="0 0 24 24"><path d="M12 2C9.85 2 7.7 2.69 5.9 4.08L7.32 5.5C10.45 3.24 14.84 3.5 17.66 6.33L19.07 4.92C17.12 2.96 14.56 2 12 2M3.28 4L2 5.27L7.73 11H6C4.89 11 4 11.9 4 13V21C4 22.11 4.89 23 6 23H18C18.5 23 18.92 22.82 19.27 22.54L19.73 23L21 21.72M12 6C10.87 6 9.75 6.31 8.77 6.94L10.24 8.41C11.73 7.68 13.58 7.92 14.83 9.16L16.24 7.75C15.07 6.58 13.54 6 12 6M12.82 11L15.82 14H18V16.18L20 18.18V13C20 11.9 19.11 11 18 11M6 14H10.73L13.73 17H6Z" /></svg>
